libs/icons/src/svg/headset.svg

<svg width="16" height="16" viewBox="0 0 16 16" fill="none" xmlns="http://www.w3.org/2000/svg">
<g clip-path="url(#clip0_3_3325)">
<path d="M8.00001 0C3.95334 0 0.666672 3.28667 0.666672 7.33333V8V11.3333C0.666672 12.4333 1.56667 13.3333 2.66667 13.3333H4.66667C5.03334 13.3333 5.33334 13.0333 5.33334 12.6667V8C5.33334 7.63333 5.03334 7.33333 4.66667 7.33333H2.00001C2.00001 4.02667 4.69334 1.33333 8.00001 1.33333C11.3067 1.33333 14 4.02667 14 7.33333H11.3333C10.9667 7.33333 10.6667 7.63333 10.6667 8V12.6667C10.6667 13.0333 10.9667 13.3333 11.3333 13.3333H13.3333C13.5667 13.3333 13.7933 13.2867 14 13.2133V13.3333C14 14.0667 13.4 14.6667 12.6667 14.6667H9.33334C8.96667 14.6667 8.66667 14.9667 8.66667 15.3333C8.66667 15.7 8.96667 16 9.33334 16H12.6667C14.14 16 15.3333 14.8067 15.3333 13.3333V11.3333V8V7.33333C15.3333 3.28667 12.0467 0 8.00001 0ZM4.00001 8.66667V12H2.66667C2.30001 12 2.00001 11.7 2.00001 11.3333V8.66667H4.00001ZM13.3333 12H12V8.66667H14V11.3333C14 11.7 13.7 12 13.3333 12Z" fill="#202327"/>
</g>
<defs>
<clipPath id="clip0_3_3325">
<rect width="16" height="16" fill="white"/>
</clipPath>
</defs>
</svg>

<svg xmlns="http://www.w3.org/2000/svg" viewBox="0 0 16 16" class="sageicon"><path d="M8 0A7.338 7.338 0 0 0 .667 7.333v4c0 1.1.9 2 2 2h2c.366 0 .666-.3.666-.666V8c0-.367-.3-.667-.666-.667H2c0-3.306 2.693-6 6-6s6 2.694 6 6h-2.667c-.366 0-.666.3-.666.667v4.667c0 .366.3.666.666.666h2c.234 0 .46-.046.667-.12v.12c0 .734-.6 1.334-1.333 1.334H9.333c-.366 0-.666.3-.666.666 0 .367.3.667.666.667h3.334a2.666 2.666 0 0 0 2.666-2.667v-6A7.338 7.338 0 0 0 8 0ZM4 8.667V12H2.667A.669.669 0 0 1 2 11.333V8.667h2ZM13.333 12H12V8.667h2v2.666c0 .367-.3.667-.667.667Z"/></svg>
